X:1
T: Musidora
N:
C:W. Croft
S:
A:
O:
R:
M:3/4
K:Am
I:speed 150
%W: A
% voice 1 (1 lines, 32 notes)
K:Am
M:3/4
L:1/16
e4/3 ^f4/3 ^g4/3 ||a8 e4 |c3 B A4 B4 |c3 d e4 d2 c2 |d2 e2 f4 e2 d2 |e4 ^f2 ^g2 a4 |^g4 e4 e4 |A4 B2 c2 d4 |c4 A8 |
%W: B
% voice 1 (1 lines, 27 notes)
e6 a2 g2 f2 |e4 c4 d4 |e6 g2 f2 e2 |d4 B4 B4 |c6 e2 d2 c2 |B4 A4 B4 |c4 d2 c2 B2 A2 |e12 |
%W: C
% voice 1 (1 lines, 31 notes)
g4 f2 e2 d2 c2 |g4 f2 e2 d2 c2 |d4 B4 e4 |c8 B4 |b4 a2 g2 ^f2 e2 |b4 a2 g2 ^f2 e2 |e4 g2 ^f2 e2 ^d2 |e8 ||
